usr/share/icons/biglinux-icons-material/scalable/mimetypes/application-x-wine-extension-skp.svg

<svg width="24" height="24" viewBox="0 0 24 24" fill="none" xmlns="http://www.w3.org/2000/svg">
<rect x="1" y="1" width="22" height="22" rx="6.6" fill="url(#paint0_radial_21_420)"/>
<path d="M15.33 4L3 5.5628L3.88077 7.50525L12.8083 6.18622L16.0366 9.50887L21.2389 8.59752L15.33 4ZM12.9127 9.87154L4.42011 11.3137L5.24737 13.4838L9.86782 12.6115L11.0518 14.6585L15.9458 13.6044L12.9127 9.87154ZM10.1328 16.73L5.9328 17.6499L6.73798 20L11.2718 18.8542L10.1328 16.73Z" fill="white"/>
<defs>
<radialGradient id="paint0_radial_21_420" cx="0" cy="0" r="1" gradientUnits="userSpaceOnUse" gradientTransform="translate(17.5 1) rotate(116.565) scale(24.5967)">
<stop stop-color="#7DC6EE"/>
<stop offset="1" stop-color="#3297CF"/>
</radialGradient>
</defs>
</svg>

<svg xmlns="http://www.w3.org/2000/svg" width="24" height="24" fill="none"><rect width="22" height="22" x="1" y="1" fill="url(#a)" rx="6.6"/><path fill="#fff" d="M15.33 4 3 5.563l.88 1.942 8.928-1.319 3.229 3.323 5.202-.911L15.33 4Zm-2.417 5.872L4.42 11.314l.827 2.17 4.62-.873 1.185 2.047 4.894-1.054-3.033-3.732Zm-2.78 6.858-4.2.92.805 2.35 4.534-1.146-1.14-2.124Z"/><defs><radialGradient id="a" cx="0" cy="0" r="1" gradientTransform="rotate(116.565 8.441 5.908) scale(24.5967)" gradientUnits="userSpaceOnUse"><stop stop-color="#7DC6EE"/><stop offset="1" stop-color="#3297CF"/></radialGradient></defs></svg>
